server/website/public/icons/base/search.svg

<svg width="48" height="48" viewBox="0 0 48 48" fill="none" xmlns="http://www.w3.org/2000/svg">
<g clip-path="url(#clip0_1310_11866)">
<path d="M44.2667 48L27.4667 31.2C26.1333 32.2667 24.6 33.1111 22.8667 33.7333C21.1333 34.3556 19.2889 34.6667 17.3333 34.6667C12.4889 34.6667 8.38933 32.9884 5.03467 29.632C1.68 26.2756 0.00177919 22.176 1.41093e-06 17.3333C-0.00177637 12.4907 1.67645 8.39111 5.03467 5.03467C8.39289 1.67822 12.4924 0 17.3333 0C22.1742 0 26.2747 1.67822 29.6347 5.03467C32.9947 8.39111 34.672 12.4907 34.6667 17.3333C34.6667 19.2889 34.3556 21.1333 33.7333 22.8667C33.1111 24.6 32.2667 26.1333 31.2 27.4667L48 44.2667L44.2667 48ZM17.3333 29.3333C20.6667 29.3333 23.5004 28.1671 25.8347 25.8347C28.1689 23.5022 29.3351 20.6684 29.3333 17.3333C29.3316 13.9982 28.1653 11.1653 25.8347 8.83467C23.504 6.504 20.6702 5.33689 17.3333 5.33333C13.9964 5.32978 11.1636 6.49689 8.83467 8.83467C6.50578 11.1724 5.33867 14.0053 5.33333 17.3333C5.328 20.6613 6.49511 23.4951 8.83467 25.8347C11.1742 28.1742 14.0071 29.3404 17.3333 29.3333Z" fill="black"/>
</g>
<defs>
<clipPath id="clip0_1310_11866">
<rect width="48" height="48" fill="white"/>
</clipPath>
</defs>
</svg>

<svg width="48" height="48" fill="none" xmlns="http://www.w3.org/2000/svg"><g clip-path="url(#prefix__clip0_1310_11866)"><path d="M44.267 48l-16.8-16.8c-1.334 1.067-2.867 1.911-4.6 2.533-1.734.623-3.578.934-5.534.934-4.844 0-8.944-1.679-12.298-5.035C1.68 26.276.002 22.176 0 17.333c-.002-4.842 1.676-8.942 5.035-12.298C8.393 1.678 12.492 0 17.333 0s8.942 1.678 12.302 5.035c3.36 3.356 5.037 7.456 5.032 12.298 0 1.956-.311 3.8-.934 5.534-.622 1.733-1.466 3.266-2.533 4.6l16.8 16.8L44.267 48zM17.333 29.333c3.334 0 6.167-1.166 8.502-3.498 2.334-2.333 3.5-5.167 3.498-8.502-.001-3.335-1.168-6.168-3.498-8.498-2.331-2.331-5.165-3.498-8.502-3.502-3.337-.003-6.17 1.164-8.498 3.502-2.33 2.337-3.496 5.17-3.502 8.498-.005 3.328 1.162 6.162 3.502 8.502 2.34 2.34 5.172 3.505 8.498 3.498z" fill="#000"/></g><defs><clipPath id="prefix__clip0_1310_11866"><path fill="#fff" d="M0 0h48v48H0z"/></clipPath></defs></svg>
